X:1
T:James Gibb editions
T:Non vuò pregare - Vecchi
T:#
%%score [ 1 2 3 ]
L:1/8
Q:1/4=108
M:3/4
K:C
V:1 treble nm="Soprano I" snm="S"
V:2 treble nm="Soprano II" snm="S II"
V:3 bass nm="Bass" snm="B"
V:1
"^Orazio Vecchi\n(1550-1605)""^Non vuò pregare" A2 | c4 B2 | c2 c2 d2 | B4 B2 | B2 A2 A2 | c4 B2 | %6
w: Non|vuò pre-|ga- re chi|non m'a-|scol- ta, Non|vuò pre-|
w: Gri-|do pie-|ta- de la|not- te~~e'l|gior- no, Gri-|do pie-|
w: Sai|ch'io ti|di- co: tu|vai pe-|nan- do, Sai|ch'io ti|
 c2 c2 d2 | B4 B2 | ^c4 c2 ||[M:4/4] A2 AA | B2 B2 c2 Ad | ^c2 c2 ::[M:4/4] z2 !courtesy!=c2 | %13
w: ga- re chi|non m'a-|scol- ta,|Che la mia|di- va d'a- mo- re~~e|pri- va;|La|
w: ta- de la|not- te~~e'l|gior- no,|Ma la ne-|mi- ca non o- de|mi- ca;|L'è|
w: di- co: tu|vai pe-|nan- do,|E'l tem- po|per- di con gli~~an- ni|ver- di;|Si|
 AA A2 BB B2 | GG G2 cc c2 | AA A2 BB B2 | cc c2 c2 c2 | d4 e4 | z2 c2 A4 | z2 d2 B4 | z2 B2 A4 | %21
w: ri- de, la ghi- gna, la|bur- la, la ri- de, la|ghi- gna, la bur- la, a|sprez- za chi fa l'a-|mo- re.||||
w: sor- da, l'è mu- ta, l'è|cie- ca, l'è sor- da, l'è|mu- ta, l'è cie- ca, l'è|pri- va di ve- ro~a-|mo- re.|Ahi- mè,|ahi- mè,|ahi- mè'l|
w: pren- de~a sol- laz- zo,~a pia-|ce- re, si pren- de~a sol-|laz- zo,~a pia- ce- re,~a con-|for- to l'al- trui do-|lo- re.||||
 ^G4 (A4- | A4 ^G4) | A8 :| %24
w: |||
w: mio co\-||re!|
w: |||
V:2
 E2 | E4 G2 | A2 A2 A2 | ^G4 G2 | A2 A2 E2 | E4 =G2 | A2 A2 A2 | ^G4 G2 | A4 A2 ||[M:4/4] F2 E^F | %10
w: Non|vuò pre-|ga- re chi|non m'a-|scol- ta, Non|vuò pre-|ga- re chi|non m'a-|scol- ta,|Che la mia|
w: Gri-|do pie-|ta- de la|not- te~e'l|gior- no, Gri-|do pie-|ta- de la|not- te~e'l|gior- no,|Ma la ne-|
w: Sai|ch'io ti|di- co: tu|vai pe-|nan- do, Sai|ch'io ti|di- co: tu|vai pe-|nan- do,|E'l tem- po|
 G2 G2 G2 ^FG | A2 A2 ::[M:4/4] z2 E2 | ^FF F2 GG G2 | EE E2 AA A2 | ^FF F2 GG G2 | GG G2 A2 c2 | %17
w: di- va d'a- mo- re~~e|pri- va;|La|ri- de, la ghi- gna, la|bur- la, la ri- de, la|ghi- gna, la bur- la, la|sprez- za chi a l'a-|
w: mi- ca non o- de|mi- ca;|L'è|sor- da, l'è mu- ta, l'è|cie- ca, l'è sor- da, l'è|mu- ta, l'è cie- ca, l'è|pri- va di ve- ro~a-|
w: per- di con gli~~an- ni|ver- di;|Si|pren- de~a sol- laz- zo,~a pia-|ce- re, si pren- de~a sol-|laz- zo,~a pia- ce- re,~a con-|for- to l'al- trui do-|
 B4 c4 | z4 z2 c2 | B4 z2 e2 | d8- | d4 c4 | B8 | A8 :| %24
w: mo- re.|||||||
w: mo- re.|Ahi-|mè, ahi-|mè'l|* mio|co-|re!|
w: lo- re.|||||||
V:3
 A,2 | A,4 G,2 | F,2 F,2 D,2 | E,4 E,2 | A,,2 A,,2 A,2 | A,4 G,2 | F,2 F,2 D,2 | E,4 E,2 | %8
w: Non|vuo pre-|ga- re chi|non m'a-|scol- ta, Non|vuo pre-|ga- re chi|non m'a-|
w: Gri-|do pie-|ta- de la|not- te~e'l|gior- no, Gri-|do pie-|ta- de la|not- te~e'l|
w: Sai|ch'io ti|di- co: tu|vai pe-|nan- do, Sai|ch'io ti|di- co: tu|vai pe-|
 A,,4 A,,2 ||[M:4/4] D,2 ^C,D, | G,,2 G,,2 C,2 D,B,, | A,,2 A,,2 ::[M:4/4] z2 A,2 | %13
w: scol- ta,|Che la mia|di- va d'a- mo- re~~e|pri- va;|La|
w: gior- no,|Ma la ne-|mi- ca non o- de|mi- ca;|L'è|
w: nan- do,|E'l tem- po|per- di con gli~~an- ni|ver- di;|Si|
 D,D, D,2 G,G, G,2 | C,C, C,2 A,,A,, A,,2 | D,D, D,2 G,,G,, G,,2 | C,C, C,2 F,2 A,2 | G,4 C,2 C2 | %18
w: ri- e, la ghi- gna, la|bur- la, la ri- de, la|ghi- gna, a bur- la, la|sprez- za chi fa l'a-|mo- re. *|
w: sor- da, l'è mu- ta, l'è|cie- ca, l'è sor- da, l'è|mu- ta, l'è cie- ca, l'è|pri- va di ve- ro~a-|mo- re. Ahi-|
w: pren- de~a sol- laz- zo,~a pia-|ce- re, si pren- de~a sol-|laz- zo,~a pia- ce- re,~a con-|for- to l'al- trui do-|lo- re. *|
 A,4 z2 A,2 | G,8- | G,4 F,4 | E,8- | E,8 | A,,8 :| %24
w: ||||||
w: mè, ahi-|mè'l|* mio|co\-||re!|
w: ||||||

